X: 131007
Q: "Scotch Jig."
M: 6/8
L: 1/8
K: D
|: de |\
fgf fed | faa a2g | fgf fed | gbb b2a |\
fga efg | def fed | BdB AFD | FEE E :|


